packages/ui-icons/svg/Solid/bullet-list.svg

<svg viewBox="0 0 1920 1920" version="1.1" xmlns="http://www.w3.org/2000/svg">
    <path d="M225.882353,1298.41176 C350.456471,1298.41176 451.764706,1399.72 451.764706,1524.29412 C451.764706,1648.86824 350.456471,1750.17647 225.882353,1750.17647 C101.308235,1750.17647 0,1648.86824 0,1524.29412 C0,1399.72 101.308235,1298.41176 225.882353,1298.41176 Z M1920,1411.35294 L1920,1637.23529 L677.647059,1637.23529 L677.647059,1411.35294 L1920,1411.35294 Z M225.882353,733.705882 C350.456471,733.705882 451.764706,835.014118 451.764706,959.588235 C451.764706,1084.16235 350.456471,1185.47059 225.882353,1185.47059 C101.308235,1185.47059 0,1084.16235 0,959.588235 C0,835.014118 101.308235,733.705882 225.882353,733.705882 Z M1920,846.647059 L1920,1072.52941 L677.647059,1072.52941 L677.647059,846.647059 L1920,846.647059 Z M225.882353,169 C350.456471,169 451.764706,270.308235 451.764706,394.882353 C451.764706,519.456471 350.456471,620.764706 225.882353,620.764706 C101.308235,620.764706 0,519.456471 0,394.882353 C0,270.308235 101.308235,169 225.882353,169 Z M1920,281.941176 L1920,507.823529 L677.647059,507.823529 L677.647059,281.941176 L1920,281.941176 Z" stroke="none" stroke-width="1" fill-rule="evenodd"/>
</svg>

<svg viewBox="0 0 1920 1920" version="1.1" xmlns="http://www.w3.org/2000/svg">
    <path d="M225.882 169c124.574 0 225.883 101.308 225.883 225.882S350.456 620.765 225.882 620.765C101.308 620.765 0 519.456 0 394.882 0 270.308 101.308 169 225.882 169zm451.765 338.824V281.94H1920v225.883H677.647zM225.882 733.706c124.574 0 225.883 101.308 225.883 225.882s-101.309 225.883-225.883 225.883C101.308 1185.47 0 1084.162 0 959.588c0-124.574 101.308-225.882 225.882-225.882zm451.765 338.823V846.647H1920v225.882H677.647zm-451.765 225.883c124.574 0 225.883 101.308 225.883 225.882s-101.309 225.882-225.883 225.882C101.308 1750.176 0 1648.868 0 1524.294s101.308-225.882 225.882-225.882zm451.765 338.823v-225.882H1920v225.882H677.647z" stroke="none" stroke-width="1" fill-rule="evenodd"/>
</svg>
